src/images/feature-flags-icon.svg

<svg xmlns="http://www.w3.org/2000/svg" width="119" height="119" fill="none" viewBox="0 0 119 119"><rect width="119" height="119" fill="#F7A501" rx="8"/><g clip-path="url(#clip0)"><path fill="#F96132" fill-rule="evenodd" d="M25.327 38.4861L96.6926 33.4082L101.061 36.9718C101.639 37.4056 102.108 37.9676 102.431 38.6135C102.754 39.2594 102.923 39.9715 102.924 40.6936V88.7942C102.924 90.0107 101.646 90.9983 100.061 90.9983H25.327C23.7495 90.9983 22.6164 90.3017 21.6601 89.3763C20.7038 88.4509 17.2559 84.1604 17.2559 84.1604L22.475 40.6869C22.4716 39.4738 23.7495 38.4861 25.327 38.4861Z" clip-rule="evenodd"/><path fill="#FF8D69" fill-rule="evenodd" d="M19.8621 32.8075H94.5966C96.1741 32.8075 97.4587 33.7951 97.4587 35.0133V83.1172C97.4587 84.3337 96.1808 85.3214 94.5966 85.3214H19.8621C18.2846 85.3214 17 84.3337 17 83.1172V35.0133C17 33.7951 18.2778 32.8075 19.8621 32.8075Z" clip-rule="evenodd"/><path fill="#E24F0D" fill-rule="evenodd" d="M97.5411 34.6735L97.5041 82.3803C97.5133 82.8517 97.4641 83.3225 97.3576 83.7819C97.2687 84.1107 97.0945 84.4102 96.8526 84.6501L101.831 90.5137C101.831 90.5137 102.858 89.8104 102.897 88.8564C103.422 76.2979 102.856 40.2444 102.856 40.2444C102.856 39.2584 102.25 37.9561 101.484 37.3352L96.5461 33.3375L97.5411 34.6735Z" clip-rule="evenodd"/><path fill="#FFAE96" fill-rule="evenodd" d="M24.2552 37.0476H90.5886C91.3474 37.0395 92.0783 37.3329 92.6207 37.8633C93.1631 38.3937 93.4725 39.1176 93.481 39.8759V78.497C93.4721 79.2551 93.1625 79.9786 92.6201 80.5086C92.0778 81.0386 91.3471 81.3318 90.5886 81.3237H24.2552C23.4967 81.3318 22.766 81.0386 22.2236 80.5086C21.6813 79.9786 21.3717 79.2551 21.3628 78.497V39.8759C21.3712 39.1176 21.6807 38.3937 22.2231 37.8633C22.7655 37.3329 23.4964 37.0395 24.2552 37.0476Z" clip-rule="evenodd"/><path fill="#fff" fill-rule="evenodd" d="M32.6426 54.1674C32.6426 50.9335 35.3027 48.3121 38.584 48.3121C41.8653 48.3121 44.5237 50.9335 44.5237 54.1674C44.5237 57.4012 41.8636 60.0226 38.584 60.0226C35.3043 60.0226 32.6426 57.4012 32.6426 54.1674Z" clip-rule="evenodd"/><path fill="#fff" fill-rule="evenodd" d="M27.5145 69.4448L49.45 69.6737C49.45 69.6737 51.2699 59.3614 38.4444 59.3075C27.0902 59.2554 27.5145 69.4448 27.5145 69.4448Z" clip-rule="evenodd"/><path fill="#fff" fill-rule="evenodd" d="M58.5278 48.0161H81.9499C82.4098 48.0161 82.8509 48.1987 83.1761 48.5237C83.5013 48.8487 83.684 49.2895 83.684 49.7491C83.684 50.2088 83.5013 50.6496 83.1761 50.9746C82.8509 51.2996 82.4098 51.4822 81.9499 51.4822H58.5278C58.0679 51.4822 57.6268 51.2996 57.3016 50.9746C56.9764 50.6496 56.7937 50.2088 56.7937 49.7491C56.7937 49.2895 56.9764 48.8487 57.3016 48.5237C57.6268 48.1987 58.0679 48.0161 58.5278 48.0161Z" clip-rule="evenodd"/><path fill="#fff" fill-rule="evenodd" d="M58.7346 56.1781H82.155C82.615 56.1785 83.0561 56.3615 83.3813 56.6868C83.7064 57.012 83.8891 57.453 83.8891 57.9128C83.8891 58.3724 83.7064 58.8132 83.3812 59.1382C83.0559 59.4632 82.6149 59.6458 82.155 59.6458H58.7346C58.2747 59.6458 57.8336 59.4632 57.5084 59.1382C57.1832 58.8132 57.0005 58.3724 57.0005 57.9128C57.0005 57.453 57.1831 57.012 57.5083 56.6868C57.8334 56.3615 58.2745 56.1785 58.7346 56.1781Z" clip-rule="evenodd"/><path fill="#fff" fill-rule="evenodd" d="M58.9416 64.5487H82.362C82.8221 64.5487 83.2633 64.7312 83.5888 65.0562C83.9143 65.3812 84.0973 65.8219 84.0978 66.2817C84.0973 66.7417 83.9143 67.1826 83.5889 67.5078C83.2635 67.8331 82.8222 68.016 82.362 68.0164H58.9416C58.4815 68.016 58.0405 67.833 57.7153 67.5077C57.3902 67.1825 57.2075 66.7415 57.2075 66.2817C57.2075 65.8221 57.3902 65.3813 57.7154 65.0563C58.0406 64.7313 58.4817 64.5487 58.9416 64.5487Z" clip-rule="evenodd"/><path fill="#FB4F0D" fill-rule="evenodd" d="M51.3184 36.5411L55.4516 43.1872C55.4516 43.1872 56.1098 44.0083 56.8927 43.5758C57.6756 43.1434 57.2614 42.3139 57.2614 42.3139L54.5306 35.2473L51.3184 36.5411Z" clip-rule="evenodd"/><path fill="#F96132" fill-rule="evenodd" d="M43.769 34.8888C42.4659 31.6684 45.0064 27.6034 49.4444 25.8031C53.8823 24.0028 58.5357 25.1654 59.8405 28.3858C61.1453 31.6062 58.6048 35.6712 54.1651 37.4715C49.7255 39.2718 45.0788 38.1092 43.769 34.8888Z" clip-rule="evenodd"/><path fill="#FFC8B7" fill-rule="evenodd" d="M42.6376 32.9338C41.3329 29.7134 43.8734 25.6484 48.313 23.8481C52.7526 22.0477 57.4044 23.2104 58.7092 26.4308C60.0139 29.6512 57.4717 33.7162 53.0338 35.5165C48.5959 37.3168 43.9374 36.1458 42.6376 32.9338Z" clip-rule="evenodd"/></g><defs><clipPath id="clip0"><rect width="86.112" height="68" fill="#fff" transform="translate(17 23)"/></clipPath></defs></svg>

<svg fill="none" viewBox="0 0 119 119"><rect width="119" height="119" fill="#F7A501" rx="8"/><g fill-rule="evenodd" clip-path="url(#clip0)" clip-rule="evenodd"><path fill="#F96132" d="M25.327 38.486l71.366-5.078 4.368 3.564a4.657 4.657 0 011.863 3.722v48.1c0 1.217-1.278 2.204-2.863 2.204H25.327c-1.578 0-2.71-.696-3.667-1.622-.956-.925-4.404-5.216-4.404-5.216l5.219-43.473c-.003-1.213 1.274-2.2 2.852-2.2z"/><path fill="#FF8D69" d="M19.862 32.807h74.735c1.577 0 2.862.988 2.862 2.206v48.104c0 1.217-1.278 2.204-2.862 2.204H19.862c-1.577 0-2.862-.987-2.862-2.204V35.013c0-1.218 1.278-2.206 2.862-2.206z"/><path fill="#E24F0D" d="M97.541 34.673l-.037 47.707c.01.472-.04.943-.146 1.402a1.933 1.933 0 01-.505.868l4.978 5.864s1.027-.704 1.066-1.658c.525-12.558-.041-48.612-.041-48.612 0-.986-.606-2.288-1.372-2.909l-4.938-3.998.995 1.336z"/><path fill="#FFAE96" d="M24.255 37.048H90.59a2.863 2.863 0 012.892 2.828v38.621a2.86 2.86 0 01-2.892 2.827H24.255a2.863 2.863 0 01-2.892-2.827V39.876a2.86 2.86 0 012.892-2.828z"/><path fill="#fff" d="M32.643 54.167c0-3.233 2.66-5.855 5.941-5.855 3.281 0 5.94 2.622 5.94 5.855 0 3.234-2.66 5.856-5.94 5.856-3.28 0-5.941-2.622-5.941-5.856z"/><path fill="#fff" d="M27.515 69.445l21.935.229s1.82-10.313-11.006-10.367c-11.354-.052-10.93 10.138-10.93 10.138zm31.013-21.429H81.95a1.735 1.735 0 011.226 2.959 1.735 1.735 0 01-1.226.507H58.528a1.735 1.735 0 01-1.226-2.958 1.735 1.735 0 011.226-.508zm.207 8.162h23.42a1.736 1.736 0 011.734 1.735 1.732 1.732 0 01-1.734 1.733h-23.42a1.735 1.735 0 110-3.468zm.207 8.37h23.42a1.736 1.736 0 011.736 1.734 1.736 1.736 0 01-1.736 1.734h-23.42a1.736 1.736 0 01-1.227-2.96 1.735 1.735 0 011.227-.507z"/><path fill="#FB4F0D" d="M51.318 36.541l4.134 6.646s.658.821 1.44.389c.784-.433.37-1.262.37-1.262l-2.731-7.067-3.213 1.294z"/><path fill="#F96132" d="M43.769 34.889c-1.303-3.22 1.237-7.286 5.675-9.086 4.438-1.8 9.092-.638 10.396 2.583 1.305 3.22-1.235 7.285-5.675 9.085-4.44 1.8-9.086.638-10.396-2.582z"/><path fill="#FFC8B7" d="M42.638 32.934c-1.305-3.22 1.235-7.286 5.675-9.086 4.44-1.8 9.091-.638 10.396 2.583 1.305 3.22-1.237 7.285-5.675 9.085-4.438 1.8-9.097.63-10.396-2.582z"/></g><defs><clipPath id="clip0"><path fill="#fff" d="M0 0h86.112v68H0z" transform="translate(17 23)"/></clipPath></defs></svg>
